X:531
T:Blooming Meadows, The
R:jig
H:Related to "Down the Hill", air#1. Petrie published a 2-part version called
H:"Chasing the Hare Down the Hill", a 3-part version "Down with the Tithes",
H:and a 2-part version "The Humours of Miltown" or "The Humours of Miltown
H:Malbay". It's also in the Goodman collection under the last title.
H:See also single jig#23. Parts 3 & 2, see also "High Part of the Road" #190.
Z:id:hn-jig-531
M:6/8
L:1/8
K:G
|: DGF G2A | BGd cAG | ~F3 DED | DFG AFD |
DGF G2A | BAG ABc | ded cAF |1 AGF GFE :|2 AGF GBd ||
|: ~g3 dB/^c/d | gdg bag | ~f3 dB/^c/d | f2g afd |1 ~g3 dB/^c/d |
g2a bag | fed cAF | AGF GBd :|2 g2e f2e | fed ^cde | fed cAF | AGF G2A ||
|: B2d c2A | B2d cAG | ~F3 DED | DFG AFD |
B2d c2A | BAG ABc | ded cAF |1 AGF G2A :|2 AGF GFE ||

